dhis-2/dhis-support/dhis-support-system/src/main/resources/SVGs/letrina_negative.svg

<svg width="48" height="48" viewBox="0 0 48 48" fill="none" xmlns="http://www.w3.org/2000/svg">
<path fill-rule="evenodd" clip-rule="evenodd" d="M0.132808 0.000189998C0.0593613 0.000189998 0 0.0595513 0 0.132998V47.8664C0 47.9404 0.0593613 47.9994 0.132808 47.9994H47.8662C47.9402 47.9994 47.9992 47.9404 47.9992 47.8664V0.132998C47.9992 0.0593613 47.9402 0 47.8662 0H0.132808V0.000189998ZM10.3157 4.00014H37.6833C38.2333 4.00014 38.6753 4.44233 38.6753 4.99233V43.0179C38.6753 43.5678 38.2333 44.0098 37.6833 44.0098H10.3157C9.76609 44.0098 9.32389 43.5678 9.32389 43.0179V4.99233C9.32389 4.44253 9.76609 4.00034 10.3157 4.00034V4.00014ZM10.9647 4.73453C10.0947 4.73453 9.96448 4.73353 9.96448 5.86532V42.1449C9.96448 42.9909 9.95389 43.3378 10.9407 43.3398L37.0653 43.3788C38.1163 43.3798 38.0343 42.9759 38.0343 42.1449V5.86532C38.0343 4.98413 37.9073 4.75283 37.0203 4.75233L10.9647 4.73473V4.73453ZM20.7886 8.31849H27.4405C29.5164 8.31849 31.2264 9.82297 31.5484 11.805C31.5444 11.729 31.5574 11.651 31.5954 11.58C31.6664 11.444 31.8004 11.362 31.9464 11.35C32.0344 11.342 32.1254 11.359 32.2104 11.404L37.5913 14.24C37.8173 14.36 37.9063 14.63 37.7923 14.848C37.6773 15.065 37.4033 15.145 37.1773 15.025L31.7964 12.188C31.6724 12.122 31.5914 12.011 31.5604 11.889C31.5874 12.082 31.6034 12.279 31.6034 12.48V36.4077C31.6034 38.7137 29.7474 40.5697 27.4405 40.5697H20.7886C18.4826 40.5697 16.6266 38.7137 16.6266 36.4077V12.48C16.6266 10.1741 18.4826 8.31849 20.7886 8.31849ZM21.5345 9.92777C19.2286 9.92777 17.3726 11.784 17.3726 14.09V34.7988C17.3726 37.1047 17.5496 39.8007 21.5345 39.8007H26.6925C30.7004 39.8007 30.8544 37.1267 30.8544 34.7988V14.09C30.8544 11.784 28.9994 9.92777 26.6925 9.92777H21.5345ZM16.0716 11.348C16.0936 11.346 16.1166 11.348 16.1386 11.35C16.2836 11.363 16.4186 11.445 16.4896 11.58C16.6046 11.797 16.5136 12.068 16.2866 12.188L10.9077 15.025C10.6817 15.145 10.4067 15.065 10.2927 14.848C10.1777 14.631 10.2677 14.359 10.4937 14.24L15.8746 11.404C15.9386 11.369 16.0056 11.353 16.0716 11.35V11.348ZM15.9336 13.631H15.9356C15.9576 13.63 15.9776 13.631 15.9996 13.633C16.1456 13.646 16.2796 13.725 16.3516 13.861C16.4656 14.078 16.3766 14.35 16.1496 14.469L10.7697 17.307C10.5427 17.426 10.2687 17.348 10.1537 17.131C10.0397 16.914 10.1307 16.641 10.3567 16.521L15.7356 13.686C15.7996 13.651 15.8666 13.634 15.9336 13.631ZM32.0834 13.631C32.1054 13.629 32.1274 13.63 32.1494 13.631C32.2164 13.634 32.2854 13.65 32.3494 13.686L37.7283 16.523C37.9543 16.643 38.0453 16.913 37.9313 17.131C37.8163 17.348 37.5403 17.426 37.3133 17.307L31.9354 14.471C31.7084 14.351 31.6174 14.078 31.7314 13.861C31.8034 13.725 31.9374 13.643 32.0834 13.631ZM23.8605 13.877C25.3705 13.877 26.5955 15.102 26.5955 16.611C26.5955 18.121 25.3705 19.3439 23.8605 19.3439C22.3515 19.3439 21.1285 18.121 21.1285 16.611C21.1285 15.102 22.3515 13.877 23.8605 13.877ZM15.9336 15.912H15.9356C15.9576 15.911 15.9776 15.912 15.9996 15.914C16.1456 15.927 16.2796 16.007 16.3516 16.143C16.4656 16.36 16.3766 16.633 16.1496 16.752L10.7697 19.5879C10.5427 19.7069 10.2687 19.6289 10.1537 19.4119C10.0397 19.195 10.1307 18.924 10.3567 18.805L15.7356 15.967C15.7996 15.932 15.8666 15.915 15.9336 15.912ZM32.1494 15.912C32.2164 15.915 32.2854 15.931 32.3494 15.967L37.7283 18.805C37.9543 18.924 38.0453 19.195 37.9313 19.4119C37.8163 19.6289 37.5403 19.7069 37.3133 19.5879L31.9354 16.752C31.7084 16.632 31.6174 16.362 31.7314 16.145C31.8034 16.009 31.9374 15.926 32.0834 15.914C32.1054 15.912 32.1274 15.911 32.1494 15.912ZM15.9336 18.193H15.9356C15.9576 18.192 15.9776 18.193 15.9996 18.195C16.1456 18.208 16.2796 18.29 16.3516 18.426C16.4656 18.643 16.3766 18.914 16.1496 19.033L10.7697 21.8689C10.5427 21.9879 10.2687 21.9109 10.1537 21.6929C10.0397 21.4759 10.1307 21.2049 10.3567 21.0859L15.7356 18.248C15.7996 18.213 15.8666 18.197 15.9336 18.193ZM32.1494 18.193C32.2164 18.197 32.2854 18.214 32.3494 18.25L37.7283 21.0859C37.9543 21.2049 38.0453 21.4759 37.9313 21.6929C37.8163 21.9099 37.5403 21.9879 37.3133 21.8689L31.9354 19.033C31.7084 18.914 31.6174 18.643 31.7314 18.426C31.8034 18.29 31.9374 18.207 32.0834 18.195C32.1054 18.193 32.1274 18.192 32.1494 18.193ZM15.9336 20.4769H15.9356C15.9576 20.4749 15.9776 20.4739 15.9996 20.4769C16.1456 20.4899 16.2796 20.5709 16.3516 20.7069C16.4656 20.9239 16.3766 21.1949 16.1496 21.3139L10.7697 24.1519C10.5427 24.2719 10.2687 24.1919 10.1537 23.9749C10.0397 23.7569 10.1307 23.4859 10.3567 23.3669L15.7356 20.5309C15.7996 20.4959 15.8666 20.4799 15.9336 20.4769ZM32.0834 20.4769C32.1054 20.4749 32.1274 20.4759 32.1494 20.4769C32.2164 20.4799 32.2854 20.4949 32.3494 20.5309L37.7283 23.3669C37.9543 23.4869 38.0453 23.7569 37.9313 23.9749C37.8163 24.1919 37.5403 24.2719 37.3133 24.1519L31.9354 21.3139C31.7084 21.1949 31.6174 20.9239 31.7314 20.7069C31.8034 20.5709 31.9374 20.4879 32.0834 20.4769ZM15.9336 22.7579H15.9356C15.9576 22.7569 15.9776 22.7559 15.9996 22.7579C16.1456 22.7709 16.2796 22.8529 16.3516 22.9879C16.4656 23.2049 16.3766 23.4759 16.1496 23.5959L10.7697 26.4339C10.5427 26.5529 10.2687 26.4749 10.1537 26.2579C10.0397 26.0399 10.1307 25.7679 10.3567 25.6479L15.7356 22.8119C15.7996 22.7779 15.8666 22.7609 15.9336 22.7579ZM32.1494 22.7579C32.2164 22.7609 32.2854 22.7769 32.3494 22.8119L37.7283 25.6499C37.9543 25.7699 38.0453 26.0399 37.9313 26.2579C37.8163 26.4749 37.5423 26.5529 37.3153 26.4339L31.9354 23.5979C31.7084 23.4779 31.6174 23.2059 31.7314 22.9879C31.8034 22.8529 31.9374 22.7719 32.0834 22.7599C32.1054 22.7579 32.1274 22.7569 32.1494 22.7579ZM15.9336 25.0389H15.9356C15.9576 25.0379 15.9776 25.0389 15.9996 25.0409C16.1456 25.0539 16.2796 25.1359 16.3516 25.2709C16.4656 25.4889 16.3766 25.7599 16.1496 25.8789L10.7697 28.7148C10.5427 28.8338 10.2687 28.7558 10.1537 28.5388C10.0397 28.3218 10.1307 28.0508 10.3567 27.9318L15.7356 25.0939C15.7996 25.0589 15.8666 25.0419 15.9336 25.0389ZM32.1494 25.0389C32.2164 25.0419 32.2854 25.0579 32.3494 25.0939L37.7283 27.9318C37.9543 28.0508 38.0453 28.3218 37.9313 28.5388C37.8163 28.7558 37.5423 28.8338 37.3153 28.7148L31.9354 25.8789C31.7084 25.7589 31.6174 25.4889 31.7314 25.2709C31.8034 25.1359 31.9374 25.0529 32.0834 25.0409C32.1054 25.0389 32.1274 25.0379 32.1494 25.0389ZM15.9356 27.3198C15.9576 27.3188 15.9776 27.3198 15.9996 27.3218C16.1456 27.3358 16.2796 27.4168 16.3516 27.5528C16.4656 27.7698 16.3766 28.0408 16.1496 28.1598L10.7697 30.9978C10.5427 31.1168 10.2687 31.0368 10.1537 30.8198C10.0397 30.6028 10.1307 30.3318 10.3567 30.2128L15.7356 27.3768C15.7996 27.3418 15.8666 27.3258 15.9336 27.3218L15.9356 27.3198ZM32.0834 27.3218C32.1054 27.3208 32.1274 27.3208 32.1494 27.3218C32.2164 27.3248 32.2854 27.3408 32.3494 27.3768L37.7283 30.2128C37.9543 30.3318 38.0453 30.6028 37.9313 30.8198C37.8163 31.0368 37.5403 31.1168 37.3133 30.9978L31.9354 28.1598C31.7084 28.0408 31.6174 27.7698 31.7314 27.5528C31.8034 27.4168 31.9374 27.3338 32.0834 27.3218ZM15.9336 29.6038H15.9356C15.9576 29.6028 15.9776 29.6008 15.9996 29.6038C16.1456 29.6168 16.2796 29.6978 16.3516 29.8338C16.4656 30.0508 16.3766 30.3218 16.1496 30.4408L10.7697 33.2788C10.5427 33.3988 10.2687 33.3188 10.1537 33.1018C10.0397 32.8848 10.1307 32.6128 10.3567 32.4938L15.7356 29.6578C15.7996 29.6228 15.8666 29.6068 15.9336 29.6038ZM32.0834 29.6038C32.1054 29.6008 32.1274 29.6018 32.1494 29.6038C32.2164 29.6068 32.2854 29.6218 32.3494 29.6578L37.7283 32.4958C37.9543 32.6158 38.0453 32.8868 37.9313 33.1038C37.8163 33.3198 37.5403 33.3988 37.3133 33.2788L31.9354 30.4428C31.7084 30.3238 31.6174 30.0508 31.7314 29.8338C31.8034 29.6978 31.9374 29.6148 32.0834 29.6038ZM15.9336 31.8848H15.9356C15.9576 31.8828 15.9776 31.8848 15.9996 31.8868C16.1456 31.8998 16.2796 31.9808 16.3516 32.1168C16.4656 32.3348 16.3766 32.6048 16.1496 32.7248L10.7697 35.5607C10.5427 35.6797 10.2687 35.6017 10.1537 35.3847C10.0397 35.1677 10.1307 34.8968 10.3567 34.7768L15.7356 31.9388C15.7996 31.9038 15.8666 31.8878 15.9336 31.8848ZM32.1494 31.8848C32.2164 31.8878 32.2854 31.9038 32.3494 31.9388L37.7283 34.7768C37.9543 34.8968 38.0453 35.1667 37.9313 35.3847C37.8163 35.6017 37.5403 35.6797 37.3133 35.5607L31.9354 32.7248C31.7084 32.6048 31.6174 32.3338 31.7314 32.1168C31.8034 31.9808 31.9374 31.8988 32.0834 31.8868C32.1054 31.8848 32.1274 31.8838 32.1494 31.8848Z" fill="#333333"/>
</svg>

<?xml version="1.0" encoding="UTF-8" standalone="no"?>
<!-- Created with Inkscape (http://www.inkscape.org/) -->
<svg id="svg8" xmlns:rdf="http://www.w3.org/1999/02/22-rdf-syntax-ns#" xmlns="http://www.w3.org/2000/svg" xmlns:osb="http://www.openswatchbook.org/uri/2009/osb" height="48" width="48" version="1.1" xmlns:cc="http://creativecommons.org/ns#" viewBox="0 0 12.7 12.7" xmlns:dc="http://purl.org/dc/elements/1.1/">
 <title id="title4753">UIO-icon</title>
 <metadata id="metadata5">
  <rdf:RDF>
   <cc:Work rdf:about="">
    <dc:format>image/svg+xml</dc:format>
    <dc:type rdf:resource="http://purl.org/dc/dcmitype/StillImage"/>
    <dc:title>UIO-icon</dc:title>
    <dc:creator>
     <cc:Agent>
      <dc:title>Joaquín Urbano</dc:title>
     </cc:Agent>
    </dc:creator>
    <dc:rights>
     <cc:Agent>
      <dc:title>GPL</dc:title>
     </cc:Agent>
    </dc:rights>
   </cc:Work>
  </rdf:RDF>
 </metadata>
 <g id="layer1" transform="translate(0,-284.3)">
  <path id="rect4002" d="m0.13281 0c-0.073448 0-0.13281 0.059362-0.13281 0.13281v47.734c-1.8504e-17 0.074 0.059362 0.133 0.13281 0.133h47.734c0.074 0 0.133-0.059 0.133-0.133v-47.734c0-0.073638-0.059-0.133-0.133-0.133h-47.734zm10.183 4h27.368c0.55 0 0.992 0.4422 0.992 0.9922v38.026c0 0.55-0.442 0.992-0.992 0.992h-27.368c-0.5496 0-0.9918-0.442-0.9918-0.992v-38.026c0-0.5498 0.4422-0.992 0.9918-0.992zm0.649 0.7344c-0.87 0-1.0002-0.001-1.0002 1.1308v36.28c0 0.846-0.0106 1.193 0.9762 1.195l26.125 0.039c1.051 0.001 0.969-0.403 0.969-1.234v-36.28c0-0.8812-0.127-1.1125-1.014-1.113l-26.056-0.0176zm9.824 3.584h6.652c2.076 0 3.786 1.5045 4.108 3.4866-0.004-0.076 0.009-0.154 0.047-0.225 0.071-0.136 0.205-0.218 0.351-0.23 0.088-0.008 0.179 0.009 0.264 0.054l5.381 2.836c0.226 0.12 0.315 0.39 0.201 0.608-0.115 0.217-0.389 0.297-0.615 0.177l-5.381-2.837c-0.124-0.066-0.205-0.177-0.236-0.299 0.027 0.193 0.043 0.39 0.043 0.591v23.928c0 2.306-1.856 4.162-4.163 4.162h-6.652c-2.306 0-4.162-1.856-4.162-4.162v-23.928c0-2.306 1.856-4.1616 4.162-4.1616zm0.746 1.6093c-2.306 0-4.162 1.8563-4.162 4.1623v20.709c0 2.306 0.177 5.002 4.162 5.002h5.158c4.008 0 4.162-2.674 4.162-5.002v-20.709c0-2.306-1.855-4.1623-4.162-4.1623h-5.158zm-5.463 1.4203c0.022-0.002 0.045 0 0.067 0.002 0.145 0.013 0.28 0.095 0.351 0.23 0.115 0.217 0.024 0.488-0.203 0.608l-5.379 2.837c-0.226 0.12-0.501 0.04-0.615-0.177-0.115-0.217-0.025-0.489 0.201-0.608l5.381-2.836c0.064-0.035 0.131-0.051 0.197-0.054v-0.002zm-0.138 2.283h0.002c0.022-0.001 0.042 0 0.064 0.002 0.146 0.013 0.28 0.092 0.352 0.228 0.114 0.217 0.025 0.489-0.202 0.608l-5.38 2.838c-0.227 0.119-0.501 0.041-0.616-0.176-0.114-0.217-0.023-0.49 0.203-0.61l5.379-2.835c0.064-0.035 0.131-0.052 0.198-0.055zm16.15 0c0.022-0.002 0.044-0.001 0.066 0 0.067 0.003 0.136 0.019 0.2 0.055l5.379 2.837c0.226 0.12 0.317 0.39 0.203 0.608-0.115 0.217-0.391 0.295-0.618 0.176l-5.378-2.836c-0.227-0.12-0.318-0.393-0.204-0.61 0.072-0.136 0.206-0.218 0.352-0.23zm-8.223 0.246c1.51 0 2.735 1.225 2.735 2.734 0 1.51-1.225 2.733-2.735 2.733-1.509 0-2.732-1.223-2.732-2.733 0-1.509 1.223-2.734 2.732-2.734zm-7.927 2.035h0.002c0.022-0.001 0.042 0 0.064 0.002 0.146 0.013 0.28 0.093 0.352 0.229 0.114 0.217 0.025 0.49-0.202 0.609l-5.38 2.836c-0.227 0.119-0.501 0.041-0.616-0.176-0.114-0.217-0.023-0.488 0.203-0.607l5.379-2.838c0.064-0.035 0.131-0.052 0.198-0.055zm16.216 0c0.067 0.003 0.136 0.019 0.2 0.055l5.379 2.838c0.226 0.119 0.317 0.39 0.203 0.607-0.115 0.217-0.391 0.295-0.618 0.176l-5.378-2.836c-0.227-0.12-0.318-0.39-0.204-0.607 0.072-0.136 0.206-0.219 0.352-0.231 0.022-0.002 0.044-0.003 0.066-0.002zm-16.216 2.281h0.002c0.022-0.001 0.042 0 0.064 0.002 0.146 0.013 0.28 0.095 0.352 0.231 0.114 0.217 0.025 0.488-0.202 0.607l-5.38 2.836c-0.227 0.119-0.501 0.042-0.616-0.176-0.114-0.217-0.023-0.488 0.203-0.607l5.379-2.838c0.064-0.035 0.131-0.051 0.198-0.055zm16.216 0c0.067 0.004 0.136 0.021 0.2 0.057l5.379 2.836c0.226 0.119 0.317 0.39 0.203 0.607-0.115 0.217-0.391 0.295-0.618 0.176l-5.378-2.836c-0.227-0.119-0.318-0.39-0.204-0.607 0.072-0.136 0.206-0.219 0.352-0.231 0.022-0.002 0.044-0.003 0.066-0.002zm-16.216 2.284h0.002c0.022-0.002 0.042-0.003 0.064 0 0.146 0.013 0.28 0.094 0.352 0.23 0.114 0.217 0.025 0.488-0.202 0.607l-5.38 2.838c-0.227 0.12-0.501 0.04-0.616-0.177-0.114-0.218-0.023-0.489 0.203-0.608l5.379-2.836c0.064-0.035 0.131-0.051 0.198-0.054zm16.15 0c0.022-0.002 0.044-0.001 0.066 0 0.067 0.003 0.136 0.018 0.2 0.054l5.379 2.836c0.226 0.12 0.317 0.39 0.203 0.608-0.115 0.217-0.391 0.297-0.618 0.177l-5.378-2.838c-0.227-0.119-0.318-0.39-0.204-0.607 0.072-0.136 0.206-0.219 0.352-0.23zm-16.15 2.281h0.002c0.022-0.001 0.042-0.002 0.064 0 0.146 0.013 0.28 0.095 0.352 0.23 0.114 0.217 0.025 0.488-0.202 0.608l-5.38 2.838c-0.227 0.119-0.501 0.041-0.616-0.176-0.114-0.218-0.023-0.49 0.203-0.61l5.379-2.836c0.064-0.034 0.131-0.051 0.198-0.054zm16.216 0c0.067 0.003 0.136 0.019 0.2 0.054l5.379 2.838c0.226 0.12 0.317 0.39 0.203 0.608-0.115 0.217-0.389 0.295-0.616 0.176l-5.38-2.836c-0.227-0.12-0.318-0.392-0.204-0.61 0.072-0.135 0.206-0.216 0.352-0.228 0.022-0.002 0.044-0.003 0.066-0.002zm-16.216 2.281h0.002c0.022-0.001 0.042 0 0.064 0.002 0.146 0.013 0.28 0.095 0.352 0.23 0.114 0.218 0.025 0.489-0.202 0.608l-5.38 2.836c-0.227 0.119-0.501 0.041-0.616-0.176-0.114-0.217-0.023-0.488 0.203-0.607l5.379-2.838c0.064-0.035 0.131-0.052 0.198-0.055zm16.216 0c0.067 0.003 0.136 0.019 0.2 0.055l5.379 2.838c0.226 0.119 0.317 0.39 0.203 0.607-0.115 0.217-0.389 0.295-0.616 0.176l-5.38-2.836c-0.227-0.12-0.318-0.39-0.204-0.608 0.072-0.135 0.206-0.218 0.352-0.23 0.022-0.002 0.044-0.003 0.066-0.002zm-16.214 2.281c0.022-0.001 0.042 0 0.064 0.002 0.146 0.014 0.28 0.095 0.352 0.231 0.114 0.217 0.025 0.488-0.202 0.607l-5.38 2.838c-0.227 0.119-0.501 0.039-0.616-0.178-0.114-0.217-0.023-0.488 0.203-0.607l5.379-2.836c0.064-0.035 0.131-0.051 0.198-0.055l0.002-0.002zm16.148 0.002c0.022-0.001 0.044-0.001 0.066 0 0.067 0.003 0.136 0.019 0.2 0.055l5.379 2.836c0.226 0.119 0.317 0.39 0.203 0.607-0.115 0.217-0.391 0.297-0.618 0.178l-5.378-2.838c-0.227-0.119-0.318-0.39-0.204-0.607 0.072-0.136 0.206-0.219 0.352-0.231zm-16.15 2.282h0.002c0.022-0.001 0.042-0.003 0.064 0 0.146 0.013 0.28 0.094 0.352 0.23 0.114 0.217 0.025 0.488-0.202 0.607l-5.38 2.838c-0.227 0.12-0.501 0.04-0.616-0.177-0.114-0.217-0.023-0.489 0.203-0.608l5.379-2.836c0.064-0.035 0.131-0.051 0.198-0.054zm16.15 0c0.022-0.003 0.044-0.002 0.066 0 0.067 0.003 0.136 0.018 0.2 0.054l5.379 2.838c0.226 0.12 0.317 0.391 0.203 0.608-0.115 0.216-0.391 0.295-0.618 0.175l-5.378-2.836c-0.227-0.119-0.318-0.392-0.204-0.609 0.072-0.136 0.206-0.219 0.352-0.23zm-16.15 2.281h0.002c0.022-0.002 0.042 0 0.064 0.002 0.146 0.013 0.28 0.094 0.352 0.23 0.114 0.218 0.025 0.488-0.202 0.608l-5.38 2.836c-0.227 0.119-0.501 0.041-0.616-0.176-0.114-0.217-0.023-0.488 0.203-0.608l5.379-2.838c0.064-0.035 0.131-0.051 0.198-0.054zm16.216 0c0.067 0.003 0.136 0.019 0.2 0.054l5.379 2.838c0.226 0.12 0.317 0.39 0.203 0.608-0.115 0.217-0.391 0.295-0.618 0.176l-5.378-2.836c-0.227-0.12-0.318-0.391-0.204-0.608 0.072-0.136 0.206-0.218 0.352-0.23 0.022-0.002 0.044-0.003 0.066-0.002z" fill-rule="evenodd" transform="matrix(.26458 0 0 .26458 0 284.3)" fill="#333"/>
 </g>
</svg>
